UI/Tools/SVG/add-road-sign_solid_24px.svg

<svg width="24" height="24" viewBox="0 0 24 24" fill="none" xmlns="http://www.w3.org/2000/svg">
<path d="M11 18C11 16.4087 11.6321 14.8826 12.7574 13.7574C13.8826 12.6321 15.4087 12 17 12C17.5683 12.0034 18.1335 12.0841 18.68 12.24C19.1397 10.6694 19.1066 8.99558 18.5852 7.44436C18.0638 5.89313 17.0793 4.5391 15.7644 3.56491C14.4494 2.59073 12.8673 2.04324 11.2315 1.9963C9.59568 1.94937 7.98481 2.40523 6.61616 3.30242C5.24752 4.19961 4.18695 5.49495 3.5775 7.01373C2.96805 8.53251 2.83905 10.2017 3.20788 11.7961C3.57672 13.3904 4.42565 14.8334 5.64018 15.9302C6.8547 17.027 8.37639 17.725 10 17.93V22H12V21.31C11.3491 20.3287 11.0013 19.1776 11 18ZM7 11V9.00001H15V11H7ZM21 19H18V22H16V19H13V17H16V14H18V17H21V19Z" fill="#0F1621"/>
</svg>

<svg xmlns="http://www.w3.org/2000/svg" width="24" height="24" viewBox="0 0 24 24"><rect width="24" height="24" style="fill:none"/><path d="M11,18a6,6,0,0,1,6-6,6.26,6.26,0,0,1,1.68.24A8,8,0,1,0,10,17.93V22h2v-.69A6,6,0,0,1,11,18ZM7,11V9h8v2Zm14,8H18v3H16V19H13V17h3V14h2v3h3Z"/></svg>
